Numix-GalliumOS/48/apps/window-manager.svg

<?xml version="1.0" encoding="UTF-8" standalone="no"?>
<svg
   xmlns:dc="http://purl.org/dc/elements/1.1/"
   xmlns:cc="http://creativecommons.org/ns#"
   xmlns:rdf="http://www.w3.org/1999/02/22-rdf-syntax-ns#"
   xmlns:svg="http://www.w3.org/2000/svg"
   xmlns="http://www.w3.org/2000/svg"
   xmlns:sodipodi="http://sodipodi.sourceforge.net/DTD/sodipodi-0.dtd"
   xmlns:inkscape="http://www.inkscape.org/namespaces/inkscape"
   width="48"
   height="48"
   viewBox="0 0 48 48"
   id="svg2"
   version="1.1"
   inkscape:version="0.91 r"
   sodipodi:docname="window-manager.svg">
  <metadata
     id="metadata10">
    <rdf:RDF>
      <cc:Work
         rdf:about="">
        <dc:format>image/svg+xml</dc:format>
        <dc:type
           rdf:resource="http://purl.org/dc/dcmitype/StillImage" />
        <dc:title />
      </cc:Work>
    </rdf:RDF>
  </metadata>
  <defs
     id="defs8" />
  <sodipodi:namedview
     pagecolor="#ffffff"
     bordercolor="#666666"
     borderopacity="1"
     objecttolerance="10"
     gridtolerance="10"
     guidetolerance="10"
     inkscape:pageopacity="0"
     inkscape:pageshadow="2"
     inkscape:window-width="1920"
     inkscape:window-height="1056"
     id="namedview6"
     showgrid="true"
     inkscape:zoom="16.000001"
     inkscape:cx="28.46032"
     inkscape:cy="20.229068"
     inkscape:window-x="0"
     inkscape:window-y="24"
     inkscape:window-maximized="1"
     inkscape:current-layer="svg2">
    <inkscape:grid
       type="xygrid"
       id="grid4138" />
  </sodipodi:namedview>
  <path
     style="fill:#85b9ab"
     d="M 9.0742188,10 C 8.4882808,10.058544 7.996094,10.607915 8,11.197266 L 8,36.802735 C 8,37.431115 8.5703118,38 9.1992188,38 L 38.800781,38 C 39.429688,38 40,37.431115 40,36.802735 L 40,11.197266 C 40,10.568885 39.429688,10 38.800781,10 Z M 37,12 c 0.552285,0 1,0.447715 1,1 0,0.552285 -0.447715,1 -1,1 -0.552285,0 -1,-0.447715 -1,-1 0,-0.552285 0.447715,-1 1,-1 z m -27,3 28,0 0,20.964844 -28,0 z"
     id="path4"
     inkscape:connector-curvature="0"
     sodipodi:nodetypes="ccsssssscsssssccccc" />
</svg>

<svg xmlns="http://www.w3.org/2000/svg" viewBox="0 0 48 48">
 <path d="m 9.07 10 c -0.586 0.059 -1.078 0.608 -1.074 1.197 l 0 25.605 c 0 0.628 0.57 1.197 1.199 1.197 l 29.602 0 c 0.629 0 1.199 -0.569 1.199 -1.197 l 0 -25.605 c 0 -0.628 -0.57 -1.197 -1.199 -1.197 m -1.801 2 c 0.552 0 1 0.448 1 1 0 0.552 -0.448 1 -1 1 -0.552 0 -1 -0.448 -1 -1 0 -0.552 0.448 -1 1 -1 z m -27 3 28 0 0 20.965 -28 0 z" style="fill:#85b9ab"/>
</svg>
